SVG_Azure_Grouped/Management/Automation Event Grid.svg

<?xml version="1.0" encoding="UTF-8" standalone="no"?>
<!-- Generated by Microsoft Visio, SVG Export Automation Event Grid.svg Page-1 -->

<svg
   xmlns:dc="http://purl.org/dc/elements/1.1/"
   xmlns:cc="http://creativecommons.org/ns#"
   xmlns:rdf="http://www.w3.org/1999/02/22-rdf-syntax-ns#"
   xmlns:svg="http://www.w3.org/2000/svg"
   xmlns="http://www.w3.org/2000/svg"
   xmlns:sodipodi="http://sodipodi.sourceforge.net/DTD/sodipodi-0.dtd"
   xmlns:inkscape="http://www.inkscape.org/namespaces/inkscape"
   width="0.78611553in"
   height="0.78735709in"
   viewBox="0 0 56.600347 56.689998"
   xml:space="preserve"
   class="st4"
   version="1.1"
   id="svg44"
   sodipodi:docname="Automation Event Grid.svg"
   style="font-size:12px;overflow:visible;color-interpolation-filters:sRGB;fill:none;fill-rule:evenodd;stroke-linecap:square;stroke-miterlimit:3"
   inkscape:version="0.92.5 (2060ec1f9f, 2020-04-08)"><metadata
   id="metadata50"><rdf:RDF><cc:Work
       rdf:about=""><dc:format>image/svg+xml</dc:format><dc:type
         rdf:resource="http://purl.org/dc/dcmitype/StillImage" /></cc:Work></rdf:RDF></metadata><defs
   id="defs48" /><sodipodi:namedview
   pagecolor="#ffffff"
   bordercolor="#666666"
   borderopacity="1"
   objecttolerance="10"
   gridtolerance="10"
   guidetolerance="10"
   inkscape:pageopacity="0"
   inkscape:pageshadow="2"
   inkscape:window-width="640"
   inkscape:window-height="480"
   id="namedview46"
   showgrid="false"
   inkscape:zoom="1.7193066"
   inkscape:cx="37.734076"
   inkscape:cy="23.279613"
   inkscape:window-x="0"
   inkscape:window-y="0"
   inkscape:window-maximized="0"
   inkscape:current-layer="svg44" />
	<style
   type="text/css"
   id="style2">
	<![CDATA[
		.st1 {fill:#0072c6;stroke:none;stroke-linecap:butt;stroke-width:12.24}
		.st2 {fill:#59b4d9;stroke:none;stroke-linecap:butt;stroke-width:12.24}
		.st3 {fill:#b8d432;stroke:none;stroke-linecap:butt;stroke-width:12.24}
		.st4 {fill:none;fill-rule:evenodd;font-size:12px;overflow:visible;stroke-linecap:square;stroke-miterlimit:3}
	]]>
	</style>

	<g
   id="g42"
   transform="translate(-12.240185,-12.2443)">
		<title
   id="title4">Page-1</title>
		<g
   id="group13145-1"
   transform="translate(12.24,-34.0157)">
			<title
   id="title6">Automation Event Grid.13145</title>
			<g
   id="group13146-2">
				<title
   id="title8">Sheet.13146</title>
				<g
   id="shape13147-3"
   transform="translate(7.92417,-15.874)">
					<title
   id="title10">Sheet.13147</title>
					<path
   d="M 36.22,87.07 V 84.81 H 19.25 L 19.24,84.8 11.31,92.74 H 5.46 L 19.04,79.14 H 28.3 V 76.87 H 18.11 v 0.01 L 18.1,76.87 2.25,92.74 H 0 v 2.27 h 6.79 l 7.93,7.94 v 0 h 19.24 v -2.27 H 15.65 L 9.99,95.01 h 13.78 v -2.27 h -9.26 l 5.66,-5.67 z"
   class="st1"
   id="path12"
   inkscape:connector-curvature="0"
   style="fill:#0072c6;stroke:none;stroke-width:12.23999977;stroke-linecap:butt" />
				</g>
				<g
   id="shape13148-5"
   transform="translate(30.6779,-21.6567)">
					<title
   id="title15">Sheet.13148</title>
					<ellipse
   cx="3.2828701"
   cy="99.6605"
   rx="3.2828701"
   ry="3.2881899"
   class="st2"
   id="ellipse17"
   style="fill:#59b4d9;stroke:none;stroke-width:12.23999977;stroke-linecap:butt" />
				</g>
				<g
   id="shape13149-7"
   transform="rotate(-45.001,-24.982605,39.765232)">
					<title
   id="title20">Sheet.13149</title>
					<ellipse
   cx="3.2828701"
   cy="99.6605"
   rx="3.2828701"
   ry="3.2881899"
   class="st2"
   id="ellipse22"
   style="fill:#59b4d9;stroke:none;stroke-width:12.23999977;stroke-linecap:butt" />
				</g>
				<g
   id="shape13150-9"
   transform="rotate(-45.001,-11.439923,34.168618)">
					<title
   id="title25">Sheet.13150</title>
					<ellipse
   cx="3.2828701"
   cy="99.6605"
   rx="3.2828701"
   ry="3.2881899"
   class="st3"
   id="ellipse27"
   style="fill:#b8d432;stroke:none;stroke-width:12.23999977;stroke-linecap:butt" />
				</g>
				<g
   id="shape13151-11"
   transform="rotate(-45.001,6.0231794,46.204977)">
					<title
   id="title30">Sheet.13151</title>
					<ellipse
   cx="3.2828701"
   cy="99.6605"
   rx="3.2828701"
   ry="3.2881899"
   class="st3"
   id="ellipse32"
   style="fill:#b8d432;stroke:none;stroke-width:12.23999977;stroke-linecap:butt" />
				</g>
				<g
   id="shape13152-13">
					<title
   id="title35">Sheet.13152</title>
					<path
   d="M 0.91,46.26 C 0.34,46.26 0,46.6 0,47.16 V 58.5 c 0,0.57 0.34,0.91 0.91,0.91 h 5.67 c 0.56,0 0.9,-0.34 0.9,-0.91 V 53.85 H 49.1 v 4.76 c 0,0.57 0.34,0.91 1.13,0.91 h 5.44 c 0.57,0 0.91,-0.34 0.91,-0.91 V 47.28 c 0.11,-0.68 -0.23,-1.02 -0.79,-1.02 z m 54.79,56.69 c 0.56,0 0.9,-0.34 0.9,-0.91 V 90.93 c 0,-0.57 -0.34,-0.91 -0.9,-0.91 h -5.44 c -0.56,0 -0.9,0.34 -0.9,0.91 v 4.54 H 7.58 V 90.7 c 0,-0.56 -0.34,-0.9 -1.13,-0.9 H 0.91 C 0.34,89.8 0,90.14 0,90.93 v 11.11 c 0,0.57 0.34,0.91 0.91,0.91 z"
   class="st1"
   id="path37"
   inkscape:connector-curvature="0"
   style="fill:#0072c6;stroke:none;stroke-width:12.23999977;stroke-linecap:butt" />
				</g>
			</g>
		</g>
	</g>
</svg>

<?xml version="1.0" encoding="UTF-8" standalone="no"?>
<!DOCTYPE svg PUBLIC "-//W3C//DTD SVG 1.1//EN" "http://www.w3.org/Graphics/SVG/1.1/DTD/svg11.dtd">
<!-- Generated by Microsoft Visio, SVG Export Automation Event Grid.svg Page-1 -->
<svg xmlns="http://www.w3.org/2000/svg" xmlns:xlink="http://www.w3.org/1999/xlink" xmlns:ev="http://www.w3.org/2001/xml-events"
		width="1.12613in" height="1.42984in" viewBox="0 0 81.0814 102.949" xml:space="preserve" color-interpolation-filters="sRGB"
		class="st4">
	<style type="text/css">
	<![CDATA[
		.st1 {fill:#0072c6;stroke:none;stroke-linecap:butt;stroke-width:12.24}
		.st2 {fill:#59b4d9;stroke:none;stroke-linecap:butt;stroke-width:12.24}
		.st3 {fill:#b8d432;stroke:none;stroke-linecap:butt;stroke-width:12.24}
		.st4 {fill:none;fill-rule:evenodd;font-size:12px;overflow:visible;stroke-linecap:square;stroke-miterlimit:3}
	]]>
	</style>

	<g>
		<title>Page-1</title>
		<g id="group12852-1" transform="translate(12.24,-34.0157)">
			<title>Automation Event Grid.12852</title>
			<g id="group12853-2">
				<title>Sheet.12853</title>
				<g id="shape12854-3" transform="translate(7.92417,-15.874)">
					<title>Sheet.12854</title>
					<path d="M36.22 87.07 L36.22 84.81 L19.25 84.81 L19.24 84.8 L11.31 92.74 L5.46 92.74 L19.04 79.14 L28.3 79.14
								 L28.3 76.87 L18.11 76.87 L18.11 76.88 L18.1 76.87 L2.25 92.74 L0 92.74 L0 95.01 L6.79 95.01 L14.72
								 102.95 L14.72 102.95 L33.96 102.95 L33.96 100.68 L15.65 100.68 L9.99 95.01 L23.77 95.01 L23.77 92.74
								 L14.51 92.74 L20.17 87.07 L36.22 87.07 Z" class="st1"/>
				</g>
				<g id="shape12855-5" transform="translate(30.6779,-21.6567)">
					<title>Sheet.12855</title>
					<ellipse cx="3.28287" cy="99.6605" rx="3.28287" ry="3.28819" class="st2"/>
				</g>
				<g id="shape12856-7" transform="translate(-35.4363,-6.01822) rotate(-45.001)">
					<title>Sheet.12856</title>
					<ellipse cx="3.28287" cy="99.6605" rx="3.28287" ry="3.28819" class="st2"/>
				</g>
				<g id="shape12857-9" transform="translate(-27.5121,1.91879) rotate(-45.001)">
					<title>Sheet.12857</title>
					<ellipse cx="3.28287" cy="99.6605" rx="3.28287" ry="3.28819" class="st3"/>
				</g>
				<g id="shape12858-11" transform="translate(-30.9082,17.7928) rotate(-45.001)">
					<title>Sheet.12858</title>
					<ellipse cx="3.28287" cy="99.6605" rx="3.28287" ry="3.28819" class="st3"/>
				</g>
				<g id="shape12859-13">
					<title>Sheet.12859</title>
					<path d="M0.91 46.26 C0.34 46.26 0 46.6 0 47.16 L0 58.5 C0 59.07 0.34 59.41 0.91 59.41 L6.58 59.41 C7.14 59.41
								 7.48 59.07 7.48 58.5 L7.48 53.85 L49.1 53.85 L49.1 58.61 C49.1 59.18 49.44 59.52 50.23 59.52 L55.67
								 59.52 C56.24 59.52 56.58 59.18 56.58 58.61 L56.58 47.28 C56.69 46.6 56.35 46.26 55.79 46.26 L0.91
								 46.26 ZM55.7 102.95 C56.26 102.95 56.6 102.61 56.6 102.04 L56.6 90.93 C56.6 90.36 56.26 90.02 55.7
								 90.02 L50.26 90.02 C49.7 90.02 49.36 90.36 49.36 90.93 L49.36 95.47 L7.58 95.47 L7.58 90.7 C7.58
								 90.14 7.24 89.8 6.45 89.8 L0.91 89.8 C0.34 89.8 0 90.14 0 90.93 L0 102.04 C0 102.61 0.34 102.95
								 0.91 102.95 L55.7 102.95 Z" class="st1"/>
				</g>
			</g>
		</g>
	</g>
</svg>
